src/components/Rewards/assets/dollar.svg

<svg viewBox="0 0 102 24" xmlns="http://www.w3.org/2000/svg">
    <g fill="none" fill-rule="evenodd">
        <path fill="#3AD0AB" d="M39.5,0 C41.9852814,-4.56538782e-16 44,2.01471863 44,4.5 L44,19.5 C44,21.9852814 41.9852814,24 39.5,24 L4.5,24 C2.01471863,24 3.04359188e-16,21.9852814 0,19.5 L0,4.5 C-3.04359188e-16,2.01471863 2.01471863,4.56538782e-16 4.5,0 L39.5,0 Z M22.6467143,4.35 L21.1887143,4.35 C21.0567136,4.35 20.9427148,4.39799952 20.8467143,4.494 C20.7507138,4.59000048 20.7027143,4.70399934 20.7027143,4.836 L20.7027143,4.836 L20.7027143,6.06 C20.1747117,6.15600048 19.6887165,6.30899895 19.2447143,6.519 C18.8007121,6.72900105 18.4197159,6.99299841 18.1017143,7.311 C17.7837127,7.62900159 17.5347152,7.98599802 17.3547143,8.382 C17.1747134,8.77800198 17.0847143,9.20999766 17.0847143,9.678 C17.0847143,10.2180027 17.1567136,10.6829981 17.3007143,11.073 C17.444715,11.463002 17.6637128,11.8019986 17.9577143,12.09 C18.2517158,12.3780014 18.623712,12.620999 19.0737143,12.819 C19.5237165,13.017001 20.0487113,13.1879993 20.6487143,13.332 C21.3087176,13.5000008 21.8907118,13.6379995 22.3947143,13.746 C22.8987168,13.8540005 23.3217126,13.9679994 23.6637143,14.088 C24.005716,14.2080006 24.2607135,14.3519992 24.4287143,14.52 C24.5967151,14.6880008 24.6807143,14.9039987 24.6807143,15.168 C24.6807143,15.4440014 24.6027151,15.6749991 24.4467143,15.861 C24.2907135,16.0470009 24.0867156,16.2029994 23.8347143,16.329 C23.582713,16.4550006 23.288716,16.5449997 22.9527143,16.599 C22.6167126,16.6530003 22.2687161,16.68 21.9087143,16.68 C21.452712,16.68 21.0717158,16.6410004 20.7657143,16.563 C20.4597128,16.4849996 20.2047153,16.3860006 20.0007143,16.266 C19.7967133,16.1459994 19.6347149,16.0080008 19.5147143,15.852 C19.3947137,15.6959992 19.2927147,15.5400008 19.2087143,15.384 C19.1367139,15.2399993 19.0467148,15.1320004 18.9387143,15.06 C18.8307138,14.9879996 18.6747153,14.952 18.4707143,14.952 L18.4707143,14.952 L17.2107143,14.952 C17.0787136,14.952 16.9617148,14.9969996 16.8597143,15.087 C16.7577138,15.1770005 16.7127142,15.2939993 16.7247143,15.438 C16.7487144,15.8940023 16.8687132,16.3109981 17.0847143,16.689 C17.3007154,17.0670019 17.5857125,17.3999986 17.9397143,17.688 C18.2937161,17.9760014 18.7077119,18.218999 19.1817143,18.417 C19.6557167,18.615001 20.1627116,18.7559996 20.7027143,18.84 L20.7027143,18.84 L20.7027143,20.064 C20.7027143,20.1960007 20.7507138,20.3099995 20.8467143,20.406 C20.9427148,20.5020005 21.0567136,20.55 21.1887143,20.55 L21.1887143,20.55 L22.6467143,20.55 C22.778715,20.55 22.8927138,20.5020005 22.9887143,20.406 C23.0847148,20.3099995 23.1327143,20.1960007 23.1327143,20.064 L23.1327143,20.064 L23.1327143,18.84 C23.7567174,18.7559996 24.3147118,18.6060011 24.8067143,18.39 C25.2987168,18.1739989 25.7157126,17.9040016 26.0577143,17.58 C26.399716,17.2559984 26.6607134,16.890002 26.8407143,16.482 C27.0207152,16.073998 27.1107143,15.6360023 27.1107143,15.168 C27.1107143,14.6759975 27.041715,14.2380019 26.9037143,13.854 C26.7657136,13.4699981 26.5377159,13.1310015 26.2197143,12.837 C25.9017127,12.5429985 25.4937168,12.2910011 24.9957143,12.081 C24.4977118,11.870999 23.8887179,11.6880008 23.1687143,11.532 C22.508711,11.3879993 21.9477166,11.2620005 21.4857143,11.154 C21.023712,11.0459995 20.6457158,10.9290006 20.3517143,10.803 C20.0577128,10.6769994 19.844715,10.5270009 19.7127143,10.353 C19.5807136,10.1789991 19.5147143,9.95400138 19.5147143,9.678 C19.5147143,9.44999886 19.5747137,9.2460009 19.6947143,9.066 C19.8147149,8.8859991 19.9797132,8.73300063 20.1897143,8.607 C20.3997153,8.48099937 20.6457129,8.38500033 20.9277143,8.319 C21.2097157,8.25299967 21.5067127,8.22 21.8187143,8.22 C22.5387179,8.22 23.0817125,8.33099889 23.4477143,8.553 C23.8137161,8.77500111 24.0867134,9.0359985 24.2667143,9.336 C24.3507147,9.46800066 24.4437138,9.57299961 24.5457143,9.651 C24.6477148,9.72900039 24.8007133,9.768 25.0047143,9.768 L25.0047143,9.768 L26.2647143,9.768 C26.396715,9.768 26.5137138,9.72300045 26.6157143,9.633 C26.7177148,9.54299955 26.7627144,9.42600072 26.7507143,9.282 C26.7267142,8.99399856 26.6367151,8.68500165 26.4807143,8.355 C26.3247135,8.02499835 26.0967158,7.7100015 25.7967143,7.41 C25.4967128,7.1099985 25.1247165,6.84300117 24.6807143,6.609 C24.2367121,6.37499883 23.7207172,6.20400054 23.1327143,6.096 L23.1327143,6.096 L23.1327143,4.836 C23.1327143,4.70399934 23.0847148,4.59000048 22.9887143,4.494 C22.8927138,4.39799952 22.778715,4.35 22.6467143,4.35 L22.6467143,4.35 Z"></path>
        <path fill="#FFF" fill-rule="nonzero" d="M57.684,16.12 C58.564,16.12 59.242,15.872 59.718,15.376 C60.194,14.88 60.448,14.22 60.48,13.396 C60.496,13.22 60.504,13.048 60.504,12.88 C60.504,12.712 60.496,12.54 60.48,12.364 C60.448,11.54 60.19,10.88 59.706,10.384 C59.222,9.888 58.548,9.64 57.684,9.64 C56.82,9.64 56.146,9.888 55.662,10.384 C55.178,10.88 54.92,11.54 54.888,12.364 L54.888,12.364 L54.876,12.88 L54.888,13.396 C54.92,14.22 55.174,14.88 55.65,15.376 C56.126,15.872 56.804,16.12 57.684,16.12 Z M57.684,15.22 C57.172,15.22 56.766,15.058 56.466,14.734 C56.166,14.41 56.004,13.944 55.98,13.336 L55.98,13.336 L55.968,12.88 L55.98,12.424 C56.004,11.816 56.166,11.35 56.466,11.026 C56.766,10.702 57.172,10.54 57.684,10.54 C58.196,10.54 58.602,10.702 58.902,11.026 C59.202,11.35 59.364,11.816 59.388,12.424 C59.396,12.504 59.4,12.656 59.4,12.88 C59.4,13.104 59.396,13.256 59.388,13.336 C59.364,13.944 59.202,14.41 58.902,14.734 C58.602,15.058 58.196,15.22 57.684,15.22 Z M62.892,16 C62.972,16 63.04,15.974 63.096,15.922 C63.152,15.87 63.18,15.804 63.18,15.724 L63.18,15.724 L63.18,12.184 C63.18,11.744 63.306,11.396 63.558,11.14 C63.81,10.884 64.156,10.756 64.596,10.756 L64.596,10.756 L65.28,10.756 C65.368,10.756 65.436,10.73 65.484,10.678 C65.532,10.626 65.556,10.56 65.556,10.48 L65.556,10.48 L65.556,10.036 C65.556,9.948 65.532,9.88 65.484,9.832 C65.436,9.784 65.368,9.76 65.28,9.76 L65.28,9.76 L64.812,9.76 C64.028,9.76 63.472,10.032 63.144,10.576 L63.144,10.576 L63.144,10.048 C63.144,9.96 63.118,9.89 63.066,9.838 C63.014,9.786 62.944,9.76 62.856,9.76 L62.856,9.76 L62.352,9.76 C62.272,9.76 62.206,9.788 62.154,9.844 C62.102,9.9 62.076,9.968 62.076,10.048 L62.076,10.048 L62.076,15.724 C62.076,15.804 62.102,15.87 62.154,15.922 C62.206,15.974 62.272,16 62.352,16 L62.352,16 L62.892,16 Z" opacity=".869"></path>
        <g transform="translate(78)">
            <circle cx="12" cy="12" r="12" fill="#FA8D62"></circle>
            <path fill="#1C0937" fill-rule="nonzero" d="M7.16988,16 C7.28004,16 7.36914,15.97246 7.43718,15.91738 C7.50522,15.8623 7.54896,15.79264 7.5684,15.7084 L7.5684,15.7084 L9.54156,9.4876 C9.54804,9.46168 9.55128,9.43252 9.55128,9.40012 C9.55128,9.34828 9.53184,9.3013 9.49296,9.25918 C9.45408,9.21706 9.40548,9.196 9.34716,9.196 L9.34716,9.196 L8.07384,9.196 C7.97664,9.196 7.89726,9.22192 7.8357,9.27376 C7.77414,9.3256 7.73364,9.38716 7.7142,9.45844 L7.7142,9.45844 L6.38256,13.85188 L5.06064,9.45844 C5.0412,9.39364 5.0007,9.3337 4.93914,9.27862 C4.87758,9.22354 4.7982,9.196 4.701,9.196 L4.701,9.196 L3.42768,9.196 C3.36936,9.196 3.31914,9.21706 3.27702,9.25918 C3.2349,9.3013 3.21384,9.34828 3.21384,9.40012 L3.21384,9.40012 L3.23328,9.4876 L5.19672,15.7084 C5.22264,15.79264 5.26962,15.8623 5.33766,15.91738 C5.4057,15.97246 5.4948,16 5.60496,16 L5.60496,16 L7.16988,16 Z M12.39438,16 C12.46566,16 12.52398,15.9757 12.56934,15.9271 C12.6147,15.8785 12.63738,15.8218 12.63738,15.757 L12.63738,15.757 L12.63738,9.439 C12.63738,9.36772 12.6147,9.3094 12.56934,9.26404 C12.52398,9.21868 12.46566,9.196 12.39438,9.196 L12.39438,9.196 L11.00442,9.196 C10.93962,9.196 10.88292,9.21868 10.83432,9.26404 C10.78572,9.3094 10.76142,9.36772 10.76142,9.439 L10.76142,9.439 L10.76142,15.757 C10.76142,15.8218 10.78572,15.8785 10.83432,15.9271 C10.88292,15.9757 10.93962,16 11.00442,16 L11.00442,16 L12.39438,16 Z M17.13288,16 C19.08336,16 20.091,15.11224 20.1558,13.33672 C20.16228,13.15528 20.16552,12.90904 20.16552,12.598 L20.1651312,12.4187632 C20.1640944,12.1896304 20.160984,11.999896 20.1558,11.84956 C20.12988,10.9942 19.85124,10.3381 19.31988,9.88126 C18.78852,9.42442 18.04332,9.196 17.08428,9.196 L17.08428,9.196 L14.52792,9.196 C14.45664,9.196 14.39832,9.2203 14.35296,9.2689 C14.3076,9.3175 14.28492,9.37744 14.28492,9.44872 L14.28492,9.44872 L14.28492,15.757 C14.28492,15.8218 14.30922,15.8785 14.35782,15.9271 C14.40642,15.9757 14.46312,16 14.52792,16 L14.52792,16 L17.13288,16 Z M17.08428,14.542 L16.11228,14.542 L16.11228,10.654 L17.03568,10.654 C17.44392,10.654 17.75334,10.75282 17.96394,10.95046 C18.17454,11.1481 18.28632,11.45428 18.29928,11.869 C18.31224,12.05044 18.31872,12.2902 18.31872,12.58828 C18.31872,12.88636 18.31224,13.12936 18.29928,13.31728 C18.28632,13.74496 18.18264,14.056 17.98824,14.2504 C17.79384,14.4448 17.49252,14.542 17.08428,14.542 L17.08428,14.542 Z"></path>
        </g>
    </g>
</svg>

<svg viewBox="0 0 102 24" xmlns="http://www.w3.org/2000/svg"><g fill="none" fill-rule="evenodd"><path fill="#3AD0AB" d="M39.5 0A4.5 4.5 0 0144 4.5v15a4.5 4.5 0 01-4.5 4.5h-35A4.5 4.5 0 010 19.5v-15A4.5 4.5 0 014.5 0h35zM22.647 4.35h-1.458a.467.467 0 00-.342.144.467.467 0 00-.144.342V6.06a5.836 5.836 0 00-1.458.459c-.444.21-.825.474-1.143.792a3.63 3.63 0 00-.747 1.071c-.18.396-.27.828-.27 1.296 0 .54.072 1.005.216 1.395.144.39.363.729.657 1.017a3.71 3.71 0 001.116.729c.45.198.975.369 1.575.513.66.168 1.242.306 1.746.414.504.108.927.222 1.269.342.342.12.597.264.765.432a.877.877 0 01.252.648c0 .276-.078.507-.234.693-.156.186-.36.342-.612.468a3.046 3.046 0 01-.882.27 6.572 6.572 0 01-1.044.081c-.456 0-.837-.039-1.143-.117a2.95 2.95 0 01-.765-.297 1.671 1.671 0 01-.486-.414 3.462 3.462 0 01-.306-.468.815.815 0 00-.27-.324c-.108-.072-.264-.108-.468-.108h-1.26a.515.515 0 00-.351.135.398.398 0 00-.135.351c.024.456.144.873.36 1.251.216.378.5.711.855.999.354.288.768.531 1.242.729.474.198.98.339 1.52.423v1.224c0 .132.049.246.145.342.096.096.21.144.342.144h1.458a.467.467 0 00.342-.144.467.467 0 00.144-.342V18.84a6.213 6.213 0 001.674-.45 4.327 4.327 0 001.25-.81c.343-.324.604-.69.784-1.098.18-.408.27-.846.27-1.314 0-.492-.07-.93-.207-1.314a2.546 2.546 0 00-.684-1.017c-.318-.294-.726-.546-1.224-.756-.498-.21-1.107-.393-1.827-.549-.66-.144-1.221-.27-1.683-.378a6.97 6.97 0 01-1.134-.351c-.294-.126-.507-.276-.64-.45-.131-.174-.197-.399-.197-.675 0-.228.06-.432.18-.612s.285-.333.495-.459a2.56 2.56 0 01.738-.288 3.9 3.9 0 01.89-.099c.72 0 1.264.111 1.63.333.366.222.639.483.819.783.084.132.177.237.279.315.102.078.255.117.459.117h1.26a.515.515 0 00.35-.135.398.398 0 00.136-.351 2.714 2.714 0 00-.27-.927 3.4 3.4 0 00-.684-.945 4.59 4.59 0 00-1.116-.801 5.396 5.396 0 00-1.548-.513v-1.26a.467.467 0 00-.144-.342.467.467 0 00-.342-.144z"/><path fill="#290F4D" fill-rule="nonzero" d="M57.684 16.12c.88 0 1.558-.248 2.034-.744.476-.496.73-1.156.762-1.98a5.7 5.7 0 000-1.032c-.032-.824-.29-1.484-.774-1.98-.484-.496-1.158-.744-2.022-.744-.864 0-1.538.248-2.022.744-.484.496-.742 1.156-.774 1.98l-.012.516.012.516c.032.824.286 1.484.762 1.98.476.496 1.154.744 2.034.744zm0-.9c-.512 0-.918-.162-1.218-.486-.3-.324-.462-.79-.486-1.398l-.012-.456.012-.456c.024-.608.186-1.074.486-1.398.3-.324.706-.486 1.218-.486s.918.162 1.218.486c.3.324.462.79.486 1.398.008.08.012.232.012.456s-.004.376-.012.456c-.024.608-.186 1.074-.486 1.398-.3.324-.706.486-1.218.486zm5.208.78c.08 0 .148-.026.204-.078a.258.258 0 00.084-.198v-3.54c0-.44.126-.788.378-1.044s.598-.384 1.038-.384h.684a.264.264 0 00.204-.078.28.28 0 00.072-.198v-.444c0-.088-.024-.156-.072-.204-.048-.048-.116-.072-.204-.072h-.468c-.784 0-1.34.272-1.668.816v-.528a.284.284 0 00-.078-.21.284.284 0 00-.21-.078h-.504a.258.258 0 00-.198.084.289.289 0 00-.078.204v5.676a.268.268 0 00.276.276h.54z" opacity=".869"/><g transform="translate(78)"><circle cx="12" cy="12" r="12" fill="#FA8D62"/><path fill="#1C0937" fill-rule="nonzero" d="M7.17 16c.11 0 .2-.028.267-.083a.369.369 0 00.131-.209l1.974-6.22a.361.361 0 00.01-.088.203.203 0 00-.059-.14.19.19 0 00-.146-.064H8.074a.357.357 0 00-.36.262l-1.331 4.394L5.06 9.458a.396.396 0 00-.122-.18.344.344 0 00-.238-.082H3.428a.206.206 0 00-.151.063.195.195 0 00-.063.141l.02.088 1.963 6.22a.423.423 0 00.14.21.412.412 0 00.268.082H7.17zm5.224 0c.072 0 .13-.024.175-.073a.241.241 0 00.068-.17V9.439a.237.237 0 00-.068-.175.237.237 0 00-.175-.068h-1.39a.241.241 0 00-.243.243v6.318c0 .065.025.122.073.17a.233.233 0 00.17.073h1.39zm4.739 0c1.95 0 2.958-.888 3.023-2.663.006-.182.01-.428.01-.739v-.18c-.002-.228-.005-.418-.01-.568-.026-.856-.305-1.512-.836-1.969-.531-.457-1.277-.685-2.236-.685h-2.556a.229.229 0 00-.175.073.254.254 0 00-.068.18v6.308c0 .065.024.122.073.17a.233.233 0 00.17.073h2.605zm-.049-1.458h-.972v-3.888h.924c.408 0 .717.099.928.296.21.198.322.504.335.919.013.181.02.421.02.72 0 .297-.007.54-.02.728-.013.428-.116.739-.31.933-.195.195-.496.292-.905.292z"/></g></g></svg>
